!!!COM:	Bach, Johann Sebastian
!!!CDT:	1685/02/21/-1750/07/28/
!!!OTL@@DE:	Da der Herr Christ zu Tische sa&szlig;
!!!SCT:	BWV 285
!!!PC#:	196
!!!AGN:	chorale
**kern	**kern	**kern	**kern
*ICvox	*ICvox	*ICvox	*ICvox
*Ibass	*Itenor	*Ialto	*Isoprn
*I"Bass	*I"Tenor	*I"Alto	*I"Soprano
*clefF4	*clefGv2	*clefG2	*clefG2
*k[b-e-a-]	*k[b-e-a-]	*k[b-e-a-]	*k[b-e-a-]
*c:	*c:	*c:	*c:
*M4/4	*M4/4	*M4/4	*M4/4
*met(c)	*met(c)	*met(c)	*met(c)
*MM100	*MM100	*MM100	*MM100
4C	4c	8e-L	4g
.	.	8fJ	.
=1	=1	=1	=1
4BB	4.d	8gL	4g
.	.	8fJ	.
4C	.	4e-	4g
.	8c	.	.
4D	4B-	4.f	4b-
[4E-	4B-	.	4g
.	.	8e-	.
=2	=2	=2	=2
4E-]	8B-L	4g	4b-
.	8cJ	.	.
4D	4d	4f	4b
4C;	4G;	4e-;	4cc;
4BB	4d	4g	4dd
=3	=3	=3	=3
[2C	8cL	4g	8ee-L
.	8d	.	8ddJ
.	8e-	4g	8ccL
.	8dJ	.	8ddJ
8CL]	4c	4g	4ee-
8E-	.	.	.
8G	4B	4g	4dd
8FJ	.	.	.
=4	=4	=4	=4
4E-	8cL	4g	4cc
.	8BJ	.	.
4A-	4c	8gL	4cc
.	.	8fJ	.
4G;	4d;	4g;	4b;
8GL	4B	4d	4g
8FJ	.	.	.
=5	=5	=5	=5
8E-L	4c	4g	8ccL
8DJ	.	.	8ddJ
4C	[4c	4g	4ee-
8FL	8cL]	8a-L	4dd
8GJ	8BJ	8gJ	.
4A-	4c	8gL	4cc
.	.	8fJ	.
=6	=6	=6	=6
4G	4d	8gL	2b
.	.	8a-	.
4GG	4G	8g	.
.	.	8fJ	.
4C;	4G;	4e-;	4cc;
8CL	4c	8e-L	4g
8DJ	.	8fJ	.
=7	=7	=7	=7
4.E-	8cL	4g	4g
.	8GJ	.	.
.	4c	4f	4a
16FLL	.	.	.
16E-JJ	.	.	.
8DL	8dL	8fL	4b-
8E-J	[8cJ	[8gJ	.
4F	8cL]	8gL]	4a-
.	16dL	[8fJ	.
.	16cJJ	.	.
=8	=8	=8	=8
8GL	8B-L	8fL]	4g
8A-J	8cJ	[8e-J	.
8B-L	8FL	8e-L]	4f
8BB-J	16B-L	8dJ	.
.	16A-JJ	.	.
4C;	4G;	4e-;	4e-;
4C	8GL	4c	4e-
.	8A-J	.	.
=9	=9	=9	=9
8GGL	8B-L	8e-L	4b-
8FFJ	8A-J	8fJ	.
4EE-	8B-L	4g	4b-
.	8d-J	.	.
8AA-L	8cL	4e-	4cc
8GGJ	8B-J	.	.
4FF	4A-	4f	4dd
=10	=10	=10	=10
8EE-L	4B-	4g	4ee-
8GGJ	.	.	.
4BB-	4B-	4f	4dd
4E-;	4B-;	4g;	4ee-;
[4C	4c	8gL	4ee-
.	.	[8a-J	.
=11	=11	=11	=11
8CL]	[4d	8a-L]	4ff
8BBJ	.	8gJ	.
4C	8dL]	4g	4ee-
.	[8cJ	.	.
4D	8cL]	8fL	4dd
.	8BnXJ	8a-J	.
8E-L	8cL	8gL	4cc
8FJ	8A-J	8fJ	.
=12	=12	=12	=12
4G	2G	8e-L	4cc
.	.	16dL	.
.	.	16cJJ	.
4GG	.	8dL	4b
.	.	[8fJ	.
4C;	4G;	8fL]	4cc;
.	.	8e;J	.
==	==	==	==
*-	*-	*-	*-
!!!hum2abc: -Q ''
!!!title: @{PC#}. @{OTL@@DE}
!!!YOR1: 371 vierstimmige Choralges&auml;nge von Johann Sebastian Bach, 
!!!YOR2: 4th ed. by Alfred D&ouml;rffel (Leipzig: Breitkopf und H&auml;rtel, 
!!!YOR2: c.1875). 178 pp. Plate "V.A.10".  reprint: J.S. Bach, 371 Four-Part 
!!!YOR4: Chorales (New York: Associated Music Publishers, Inc., c.1940).
!!!SMS: B&H, 4th ed, Alfred D&ouml;rffel, c.1875, plate V.A.10
!!!EED:  Craig Stuart Sapp
!!!EEV:  2009/05/22
